X: 20643
T: FRANKLIN QUICK STEP
C:
%R: quickstep, polka, reel
B: Elias Howe "The Musician's Companion" 1843 p.64 #1
S: http://imslp.org/wiki/The_Musician's_Companion_(Howe,_Elias)
Z: 2015 John Chambers <jc:trillian.mit.edu>
N: The rhythms at the strains' boundaries don't quite match; not fixed.
N: Pickup notes to 4th strain changed from 8th notes to 16th notes.
M: 2/4
L: 1/16
K: F
% - - - - - - - - - - - - - - - - - - - - - - - - -
c2 |\
f2ff f2f2 | f6 e2 | d2dd d2d2 | d6 d2 |\
g2gg g2g2 | g2c2d2e2 | f2ed cBAG | F4 z2 :|
|: AB |\
cdc=B c2f2 | cdc=B c2a2 | gfed c2a2 | gfed c2GA |\
BcBA B2g2 | BcBA B2g2 | fedc d2e2 | f4 z2 :|
|:\
F4 F4 | F2CD E2FG | A4 A4 | A2EF G2AB |\
c4 c4 | c2fd c2BA | c2dc c2de | f4 f4 :|
|: (3(cde) |\
f4 a4 | f2ed c2BA | g4 b4 | a2gf e2dc |\
f4 a4 | f2ed c2BA | c2dc c2de | f4 z2 :|
% - - - - - - - - - - - - - - - - - - - - - - - - -

%%sep 1 1 500

